X:163
T:Jellington's
Z: id:dc-reel-104
M:C
L:1/8
K:A Major
f|e2cA eAcA|eAcA Bcdf|e2cA eAcA|Bcdc BAF2|!
e2cA ecfc|e2cA BFF2|e2cA EAcA|BdcA BAFA|]!
K:D Major
d3c dAFA|dcdB AFEA|d3c dfed|cABc AFEA|!
d3c dAFA|dcdB AFEA|dcdf e2ae|fdBc defg|!
aAA2 cee2|abag fefg|a2AF ABAF|ABde fgaf|eAce defe|!
defd BAFA|BABc dcdB|AFF2 ABdB|AFEF D2:|!